X: 44
T:Drunken Landlady, The
M:C|
L:1/8
Q:200
S:THSP
R:reel
D:
Z:
K:Edor
"Em"BE~E2 BAFA|BE~E2 BAFG|"D"ABAF D2(3FED|FGAd BAFA|
"Em"BE~E2 BAFA|BEcE BAFG|"D"~A2Bc dfec|dBAF "Em"E2FA:|:
"Em"Beed e2de|f2df efdB|"D"ABAF D2(3FED|FGAd BAFA|
"Em"Beed e2de|f2df efdB|"D"~A2Bc dfec|dBAF "Em"E2FA:||
